brandFactory_export/2.Regular/Proteger cuidar _2Regular.svg

<?xml version="1.0" encoding="UTF-8"?>
<svg width="24px" height="24px" viewBox="0 0 24 24" version="1.1" xmlns="http://www.w3.org/2000/svg" xmlns:xlink="http://www.w3.org/1999/xlink">
    <title>2.Regular/Proteger cuidar _2Regular</title>
    <g id="Symbols" stroke="none" stroke-width="1" fill="none" fill-rule="evenodd">
        <g id="2.Regular/Proteger-cuidar-_2Regular" fill="#5CB615" fill-rule="nonzero">
            <path d="M21.9092437,15.8991597 C21.9092437,15.8857143 22.2084034,11.9294118 22.1747899,10.6420168 C22.1714286,10.5344538 22.1613445,10.4806723 22.1512605,10.4537815 C22.1411765,10.4537815 22.1042017,10.4436975 22.0336134,10.4436975 C21.912605,10.4470588 21.8218487,10.507563 21.8016807,10.605042 L21.1798319,13.6369748 C21.1731092,13.6705882 21.1529412,13.6941176 21.1428571,13.7243697 C21.1394958,14.0067227 21.0789916,14.2857143 20.9310924,14.5344538 L20.9277311,14.5378151 L20.9277311,14.5411765 L19.0823529,17.6638655 C18.9478992,17.8957983 18.7058824,18.0235294 18.4605042,18.0235294 C18.3327731,18.0235294 18.2084034,17.989916 18.0907563,17.9193277 C17.7478992,17.7109244 17.6336134,17.2638655 17.8386555,16.9176471 L19.6840336,13.7915966 C19.6840336,13.7915966 19.687395,13.7915966 19.687395,13.7882353 L19.687395,13.7848739 C19.7277311,13.7176471 19.6840336,13.5462185 19.6168067,13.502521 C19.6168067,13.502521 19.4756303,13.4218487 19.4218487,13.512605 L19.3277311,13.6739496 C19.0184874,14.2252101 18.3764706,15.3714286 17.0689076,16.0470588 C17.0689076,16.0470588 16.7663866,16.2285714 16.2252101,16.9310924 C15.7344538,17.5731092 15.3210084,18.2890756 15.0016807,19.0588235 L14.897479,19.307563 L18.3932773,19.307563 C18.4369748,19.307563 18.4806723,19.3176471 18.5277311,19.3210084 L20.6789916,17.4823529 C20.8638655,17.3243697 21.0588235,17.1764706 21.2537815,17.0285714 C21.3983193,16.9210084 21.5361345,16.7529412 21.6672269,16.5310924 C21.8084034,16.302521 21.8890756,16.087395 21.9092437,15.8991597 L21.9092437,15.8991597 Z M18.6689076,21.892437 L18.6689076,21.0420168 C18.6689076,20.8941176 18.5478992,20.7731092 18.4,20.7731092 L14.2521008,20.7731092 C14.1042017,20.7731092 13.9831933,20.8941176 13.9831933,21.0420168 L13.9831933,21.8957983 C13.9831933,22.0436975 14.1042017,22.1647059 14.2521008,22.1647059 L18.4,22.1647059 C18.5478992,22.1647059 18.6689076,22.0436975 18.6689076,21.892437 Z M23.6201681,10.605042 C23.6571429,11.9663866 23.3613445,15.8722689 23.3478992,16.0403361 C23.3008403,16.4605042 23.1563025,16.8705882 22.9109244,17.2840336 C22.6823529,17.6672269 22.4168067,17.9764706 22.1243697,18.1983193 C21.9495798,18.3294118 21.7781513,18.4571429 21.6168067,18.5983193 L19.8420168,20.1176471 C20.010084,20.3831933 20.1142857,20.702521 20.1142857,21.0420168 L20.1142857,21.8957983 C20.1142857,22.8504202 19.3445378,23.6268908 18.3966387,23.6268908 L14.2487395,23.6268908 C13.3008403,23.6268908 12.5344538,22.8537815 12.5344538,21.8957983 L12.5344538,21.0420168 C12.5344538,20.5042017 12.7831933,20.0302521 13.1630252,19.7142857 L13.6705882,18.497479 C14.0403361,17.6134454 14.5176471,16.7865546 15.0857143,16.0436975 C15.8319328,15.0689076 16.3092437,14.8 16.4403361,14.7428571 C17.3310924,14.2789916 17.8117647,13.4218487 18.0705882,12.9613445 L18.1915966,12.7495798 C18.5781513,12.1176471 19.3310924,11.8722689 20.0201681,12.1008403 L20.3865546,10.3092437 C20.5478992,9.51932773 21.2504202,8.98487395 22.0302521,8.98151261 C23.0487395,9.03865546 23.5966387,9.6302521 23.6201681,10.605042 L23.6201681,10.605042 Z M9.64369748,21.892437 L9.64369748,21.0420168 C9.64369748,20.8941176 9.52268908,20.7731092 9.37815126,20.7731092 L5.2302521,20.7731092 C5.08235294,20.7731092 4.96134454,20.8941176 4.96134454,21.0420168 L4.96134454,21.8957983 C4.96134454,22.0436975 5.08235294,22.1647059 5.2302521,22.1647059 L9.37815126,22.1647059 C9.52268908,22.1647059 9.64369748,22.0436975 9.64369748,21.892437 Z M2.94117647,17.4857143 L5.09243697,19.3243697 C5.13613445,19.3210084 5.17983193,19.3109244 5.22352941,19.3109244 L8.71932773,19.3109244 L8.61512605,19.0621849 C8.29243697,18.292437 7.88235294,17.5764706 7.39159664,16.9344538 C6.85042017,16.2319328 6.54789916,16.0504202 6.54453782,16.0504202 C5.24033613,15.3747899 4.59831933,14.2285714 4.29243697,13.6773109 L4.19831933,13.512605 C4.14453782,13.4218487 4.00336134,13.502521 4.00336134,13.5058824 C3.93613445,13.5462185 3.89243697,13.7176471 3.93277311,13.7848739 L3.93277311,13.7882353 L3.93613445,13.7915966 L5.78151261,16.9176471 C5.98655462,17.2638655 5.87563025,17.7109244 5.52941176,17.9193277 C5.41512605,17.9865546 5.28403361,18.0235294 5.16302521,18.0235294 C4.91764706,18.0235294 4.67563025,17.8957983 4.54117647,17.6638655 L2.69579832,14.5378151 L2.69579832,14.5344538 L2.69243697,14.5344538 C2.54789916,14.2857143 2.48403361,14.0033613 2.48067227,13.7243697 C2.47058824,13.6941176 2.45042017,13.6705882 2.44369748,13.6369748 L1.82184874,10.605042 C1.80168067,10.507563 1.7210084,10.4470588 1.6302521,10.4403361 C1.52941176,10.4470588 1.48235294,10.4571429 1.46218487,10.4638655 C1.46554622,10.4773109 1.45210084,10.5344538 1.4487395,10.6420168 C1.41512605,11.9294118 1.71428571,15.8857143 1.71764706,15.9260504 C1.73781513,16.087395 1.81848739,16.302521 1.95630252,16.5378151 C2.08739496,16.7596639 2.22857143,16.9277311 2.37310924,17.0352941 C2.56134454,17.1764706 2.75630252,17.3243697 2.94117647,17.4857143 Z M9.94957983,18.497479 L10.4605042,19.7142857 C10.8403361,20.0302521 11.0890756,20.5042017 11.0890756,21.0420168 L11.0890756,21.8957983 C11.0890756,22.8470588 10.3193277,23.6268908 9.37478992,23.6268908 L5.22689076,23.6268908 C4.2789916,23.6268908 3.51260504,22.8504202 3.51260504,21.8957983 L3.51260504,21.0420168 C3.51260504,20.6991597 3.61344538,20.3831933 3.78151261,20.1176471 L2.00672269,18.5983193 C1.84537815,18.4605042 1.67058824,18.3294118 1.50252101,18.2016807 C1.20672269,17.9764706 0.941176471,17.6672269 0.712605042,17.2840336 C0.467226891,16.8705882 0.322689076,16.4605042 0.278991597,16.0638655 C0.262184874,15.8722689 -0.0302521008,11.9663866 0.00336134454,10.6016807 C0.0268907563,9.62689076 0.578151261,9.03865546 1.50588235,8.98487395 C2.37647059,8.99495798 3.07226891,9.51596639 3.23697479,10.3092437 L3.60672269,12.1008403 C4.29579832,11.8722689 5.04537815,12.1176471 5.43193277,12.7462185 L5.55294118,12.9579832 C5.81176471,13.4184874 6.29243697,14.2756303 7.21008403,14.7529412 C7.31092437,14.8 7.78823529,15.0689076 8.53445378,16.0403361 C9.10252101,16.7831933 9.58319328,17.610084 9.94957983,18.497479 Z M11.7310924,13.3546218 C13.5831933,12.4168067 16.292437,10.594958 16.5378151,9.17983193 C16.7831933,7.75462185 16.8369748,4.76302521 16.8470588,3.3512605 C15.6705882,3.3210084 14.9210084,2.82352941 14.2453782,2.3697479 C13.5193277,1.88235294 12.887395,1.46218487 11.7344538,1.45882353 L11.7310924,1.45882353 C10.5747899,1.45882353 9.94621849,1.88235294 9.21680672,2.36638655 C8.53109244,2.82689076 7.77142857,3.33445378 6.61512605,3.35798319 C6.62857143,4.77647059 6.68235294,7.75462185 6.93109244,9.17647059 C7.1697479,10.5983193 9.8789916,12.4168067 11.7310924,13.3546218 L11.7310924,13.3546218 Z M17.9630252,9.43193277 C17.492437,12.1579832 12.5915966,14.5613445 12.0369748,14.8302521 C11.9394958,14.8773109 11.8319328,14.9008403 11.7277311,14.9008403 C11.6235294,14.9008403 11.5159664,14.8773109 11.4184874,14.8302521 C10.8605042,14.5647059 5.96638655,12.1613445 5.49915966,9.43193277 C5.14957983,7.41512605 5.15963386,2.77310924 5.15963386,2.57815126 C5.15963386,2.35294118 5.26386555,2.14453782 5.43865546,2.00336134 C5.61680672,1.86554622 5.84201681,1.81848739 6.05714286,1.86890756 C7.10252101,2.02689076 7.64705882,1.6605042 8.41008403,1.15294118 C9.17647059,0.638655462 10.1310924,0 11.7210084,0 L11.7277311,0 C13.3176471,0.00336134454 14.2722689,0.642016807 15.0386555,1.15294118 C15.8016807,1.6605042 16.3529412,2.03361345 17.4319328,1.86218487 C17.6470588,1.83193277 17.8621849,1.88907563 18.0235294,2.02689076 C18.1848739,2.16470588 18.2890756,2.36302521 18.2890756,2.57815126 C18.2957983,2.77310924 18.3058824,7.41176471 17.9630252,9.43193277 Z M14.0705882,4.94453782 C14.3529412,4.65882353 14.810084,4.65882353 15.092437,4.94453782 C15.3747899,5.2302521 15.3747899,5.69411765 15.092437,5.97647059 L11.1529412,9.94957983 C11.0117647,10.0907563 10.8268908,10.1613445 10.6386555,10.1613445 C10.4537815,10.1613445 10.2689076,10.0907563 10.1277311,9.94957983 L8.35966387,8.16470588 C8.07731092,7.8789916 8.07731092,7.41848739 8.35966387,7.13277311 C8.64201681,6.84705882 9.09915966,6.84705882 9.38151261,7.13277311 L10.6352941,8.40336134 L14.0705882,4.94453782 Z" id="Proteger-cuidar-_2Regular"></path>
        </g>
    </g>
</svg>

<svg width="24" height="24" viewBox="0 0 24 24" xmlns="http://www.w3.org/2000/svg"><path d="M21.91 15.9c0-.014.298-3.97.265-5.258a.653.653 0 00-.024-.188c-.01 0-.047-.01-.117-.01-.121.003-.212.064-.232.161l-.622 3.032c-.007.034-.027.057-.037.087a1.603 1.603 0 01-.212.81l-.003.004v.003l-1.846 3.123a.719.719 0 01-.991.255.735.735 0 01-.252-1.001l1.845-3.126s.003 0 .003-.004v-.003c.04-.067-.003-.239-.07-.282 0 0-.141-.081-.195.01l-.094.16c-.31.552-.952 1.698-2.26 2.374 0 0-.302.182-.843.884a9.499 9.499 0 00-1.223 2.128l-.105.249h3.496c.044 0 .088.01.135.013l2.151-1.839c.185-.158.38-.306.575-.453.144-.108.282-.276.413-.498.141-.228.222-.444.242-.632zm-3.241 5.992v-.85a.27.27 0 00-.269-.269h-4.148a.27.27 0 00-.269.269v.854a.27.27 0 00.27.269H18.4a.27.27 0 00.269-.273zm4.951-11.287c.037 1.361-.259 5.267-.272 5.435-.047.42-.192.83-.437 1.244a3.177 3.177 0 01-.787.914c-.174.131-.346.26-.507.4l-1.775 1.52c.168.265.272.585.272.924v.854c0 .954-.77 1.73-1.717 1.73h-4.148a1.72 1.72 0 01-1.715-1.73v-.854c0-.538.25-1.012.629-1.328l.508-1.217c.37-.884.847-1.71 1.415-2.453.746-.975 1.223-1.244 1.354-1.301.891-.464 1.372-1.321 1.63-1.782l.122-.211c.386-.632 1.14-.878 1.828-.65l.367-1.79a1.675 1.675 0 011.643-1.328c1.019.057 1.567.648 1.59 1.623zM9.644 21.892v-.85a.269.269 0 00-.266-.269H5.23a.27.27 0 00-.269.269v.854a.27.27 0 00.27.269h4.147a.27.27 0 00.266-.273zM2.94 17.486l2.151 1.838c.044-.003.088-.013.132-.013h3.495l-.104-.249a9.63 9.63 0 00-1.223-2.128c-.542-.702-.844-.884-.847-.884-1.305-.675-1.947-1.821-2.253-2.373l-.094-.164c-.053-.091-.195-.01-.195-.007-.067.04-.11.212-.07.279v.003l.003.004 1.846 3.126a.732.732 0 01-.619 1.106.719.719 0 01-.622-.36l-1.845-3.126v-.004h-.004a1.647 1.647 0 01-.211-.81c-.01-.03-.03-.053-.037-.087l-.622-3.032a.207.207 0 00-.192-.165.754.754 0 00-.168.024c.004.013-.01.07-.013.178-.034 1.287.265 5.244.269 5.284.02.161.1.377.238.612.131.222.273.39.417.497.188.141.383.29.568.45zm7.009 1.011l.51 1.217c.38.316.63.79.63 1.328v.854c0 .951-.77 1.73-1.715 1.73H5.227a1.723 1.723 0 01-1.714-1.73v-.854c0-.343.1-.659.269-.924l-1.775-1.52c-.162-.137-.336-.269-.504-.396a3.195 3.195 0 01-.79-.918 3.059 3.059 0 01-.434-1.22c-.017-.192-.31-4.098-.276-5.462.024-.975.575-1.563 1.503-1.617.87.01 1.566.531 1.731 1.324l.37 1.792c.689-.229 1.438.017 1.825.645l.12.212c.26.46.74 1.318 1.658 1.795.1.047.578.316 1.324 1.287a10.9 10.9 0 011.416 2.457zm1.781-5.142c1.852-.938 4.561-2.76 4.807-4.175.245-1.425.299-4.417.31-5.829-1.177-.03-1.927-.527-2.603-.981-.726-.488-1.358-.908-2.51-.911h-.004c-1.156 0-1.785.423-2.514.907-.686.46-1.446.968-2.602.992.014 1.418.067 4.397.316 5.818.239 1.422 2.948 3.24 4.8 4.179zm6.232-3.923c-.47 2.726-5.371 5.13-5.926 5.398a.717.717 0 01-.619 0c-.557-.265-5.452-2.669-5.919-5.398-.35-2.017-.34-6.659-.34-6.854 0-.225.105-.433.28-.575a.732.732 0 01.618-.134c1.046.158 1.59-.208 2.353-.716C9.176.639 10.131 0 11.721 0h.007c1.59.003 2.544.642 3.31 1.153.764.508 1.315.88 2.394.71a.746.746 0 01.857.715c.007.195.017 4.834-.326 6.854zm-3.892-4.487a.716.716 0 011.021 0 .734.734 0 010 1.031l-3.94 3.974a.722.722 0 01-1.024 0L8.36 8.165a.734.734 0 010-1.032.716.716 0 011.022 0l1.253 1.27 3.436-3.458z" fill="#5CB615" fill-rule="nonzero"/></svg>
